svgs/thin/trademark.svg

<svg xmlns="http://www.w3.org/2000/svg" viewBox="0 0 640 512"><!-- Font Awesome Pro 6.0.0-alpha2 by @fontawesome - https://fontawesome.com License - https://fontawesome.com/license (Commercial License) --><path d="M248 96.008H8C3.594 96.008 0 99.586 0 104.008S3.594 112.008 8 112.008H120V408C120 412.422 123.594 416 128 416S136 412.422 136 408V112.008H248C252.406 112.008 256 108.43 256 104.008S252.406 96.008 248 96.008ZM634.594 96.445C631.438 95.352 627.781 96.398 625.688 99.102L464 306.971L302.312 99.102C300.219 96.367 296.531 95.32 293.406 96.445C290.156 97.555 288 100.586 288 104.008V408C288 412.422 291.594 416 296 416S304 412.422 304 408V127.32L457.688 324.908C460.688 328.814 467.312 328.814 470.312 324.908L624 127.32V408C624 412.422 627.594 416 632 416S640 412.422 640 408V104.008C640 100.586 637.844 97.555 634.594 96.445Z"/></svg>

<svg xmlns="http://www.w3.org/2000/svg" viewBox="0 0 640 512"><!--! Font Awesome Pro 6.4.0 by @fontawesome - https://fontawesome.com License - https://fontawesome.com/license (Commercial License) Copyright 2023 Fonticons, Inc. --><path d="M0 104c0 4.4 3.6 8 8 8H120V408c0 4.4 3.6 8 8 8s8-3.6 8-8V112H248c4.4 0 8-3.6 8-8s-3.6-8-8-8H8c-4.4 0-8 3.6-8 8zm302-5.3c-2.2-2.5-5.7-3.4-8.8-2.2s-5.2 4.2-5.2 7.5V408c0 4.4 3.6 8 8 8s8-3.6 8-8V125.3l154 176c1.5 1.7 3.7 2.7 6 2.7s4.5-1 6-2.7l154-176V408c0 4.4 3.6 8 8 8s8-3.6 8-8V104c0-3.3-2.1-6.3-5.2-7.5s-6.6-.3-8.8 2.2L464 283.8 302 98.7z"/></svg>
